X: 66
T: Canglao de dayan
%%abc-version 2.0
%%abcx-abcm2ps-target-version 5.9.1 (29 Sep 2008)
%%abc-creator hum2abc beta
%%abcx-conversion-date 2013/10/02 07:44:27
%%abc-edited-by Helmut Schaffrath
%%humdrum-veritas 2943127984
%%humdrum-veritas-data 2823313236
%%continueall 1
%%barnumbers 0
L: 1/16
M: 4/4
K: Bb
g4>f4 g2 (3f g b [I:setbarnb 1]| 
f2> f2f8-f2 (3d/ f/ d/ f/ b/ | 
d2 (3d d f c2 c2-c8 | 
f2 g g g2 (3b c' b g2 b2 g f f2 | 
f2 g g b2 c'2c'8 | 
[M:3/4]c'2 b4<g'4b'2 | 
g8b2 (3b b d' | 
g12 | 
f8-f2 (3f f b | 
f2 f b d2 (3d d f c> c c c | 
c12 | 
f2 (3g g g g2 (3g g c' b b g g | 
[M:4/4]f2 g g g2 (3b b c'c'8 | 
c'2 b4<g'4(3f'/ g'/ f'/ g'/ b'/ | 
g8b2 (3b b d' | 
g12 |]  



